X:1
T: Alexander Cunningham
C:
R:Strathspey
Q:128
K:D
M:4/4
L:1/16
|:D3E GFED B,E3 E3F|D3E GFED FA3 A4|d3e1/2f1/2 A2F2 B2B,2 B,3A,|DDD2 DDD2 G3E FA3|
D3E GFED B,E3 E3F|D3E GFED FA3 A4|d3e1/2f1/2 A2F2 B2B,2 B,3A,|DDD2 DDD2 G3E FA3|
d3f gfed c2e2 e2f2|d3e f2b2 a2d2 f2b2|a2d2 A2F2 B2B,2 B,3A,|DDD2 DDD2 G3E FA3|
d3f gfed c2e2 e2f2|d3e f2b2 a2f2 g2e2|f2d2 A2F2 B2B,2 E2C2|DDD2 F3A d3D F3A:|
